images/2598.svg

<?xml version="1.0" encoding="UTF-8"?>
<svg xmlns="http://www.w3.org/2000/svg" xmlns:xlink="http://www.w3.org/1999/xlink" width="300pt" height="300pt" viewBox="0 0 300 300" version="1.1">
<defs>
<g>
<symbol overflow="visible" id="glyph0-0">
<path style="stroke:none;" d="M 0.640625 2.296875 L 0.640625 -9.171875 L 7.140625 -9.171875 L 7.140625 2.296875 Z M 1.375 1.578125 L 6.421875 1.578125 L 6.421875 -8.4375 L 1.375 -8.4375 Z M 1.375 1.578125 "/>
</symbol>
<symbol overflow="visible" id="glyph0-1">
<path style="stroke:none;" d="M 1.28125 -9.484375 L 3 -9.484375 L 7.203125 -1.546875 L 7.203125 -9.484375 L 8.453125 -9.484375 L 8.453125 0 L 6.71875 0 L 2.515625 -7.921875 L 2.515625 0 L 1.28125 0 Z M 1.28125 -9.484375 "/>
</symbol>
<symbol overflow="visible" id="glyph0-2">
<path style="stroke:none;" d="M 5.125 -8.609375 C 4.1875 -8.609375 3.441406 -8.257812 2.890625 -7.5625 C 2.347656 -6.875 2.078125 -5.929688 2.078125 -4.734375 C 2.078125 -3.535156 2.347656 -2.585938 2.890625 -1.890625 C 3.441406 -1.203125 4.1875 -0.859375 5.125 -0.859375 C 6.050781 -0.859375 6.785156 -1.203125 7.328125 -1.890625 C 7.878906 -2.585938 8.15625 -3.535156 8.15625 -4.734375 C 8.15625 -5.929688 7.878906 -6.875 7.328125 -7.5625 C 6.785156 -8.257812 6.050781 -8.609375 5.125 -8.609375 Z M 5.125 -9.65625 C 6.445312 -9.65625 7.503906 -9.207031 8.296875 -8.3125 C 9.097656 -7.414062 9.5 -6.222656 9.5 -4.734375 C 9.5 -3.234375 9.097656 -2.035156 8.296875 -1.140625 C 7.503906 -0.253906 6.445312 0.1875 5.125 0.1875 C 3.789062 0.1875 2.722656 -0.253906 1.921875 -1.140625 C 1.128906 -2.035156 0.734375 -3.234375 0.734375 -4.734375 C 0.734375 -6.222656 1.128906 -7.414062 1.921875 -8.3125 C 2.722656 -9.207031 3.789062 -9.65625 5.125 -9.65625 Z M 5.125 -9.65625 "/>
</symbol>
<symbol overflow="visible" id="glyph0-3">
<path style="stroke:none;" d="M 1.28125 -9.484375 L 2.5625 -9.484375 L 2.5625 -5.59375 L 7.21875 -5.59375 L 7.21875 -9.484375 L 8.5 -9.484375 L 8.5 0 L 7.21875 0 L 7.21875 -4.515625 L 2.5625 -4.515625 L 2.5625 0 L 1.28125 0 Z M 1.28125 -9.484375 "/>
</symbol>
</g>
</defs>
<g id="surface48557">
<rect x="0" y="0" width="300" height="300" style="fill:rgb(100%,100%,100%);fill-opacity:1;stroke:none;"/>
<path style="fill:none;stroke-width:1.2;stroke-linecap:butt;stroke-linejoin:miter;stroke:rgb(0%,0%,0%);stroke-opacity:1;stroke-miterlimit:10;" d="M 60.574219 173.027344 L 35.25 152.191406 "/>
<path style="fill:none;stroke-width:1.2;stroke-linecap:butt;stroke-linejoin:miter;stroke:rgb(0%,0%,0%);stroke-opacity:1;stroke-miterlimit:10;" d="M 62.945312 164.984375 L 42.683594 148.316406 "/>
<path style="fill:none;stroke-width:1.2;stroke-linecap:butt;stroke-linejoin:miter;stroke:rgb(0%,0%,0%);stroke-opacity:1;stroke-miterlimit:10;" d="M 91.28125 161.511719 L 60.574219 173.027344 "/>
<path style="fill:none;stroke-width:1.2;stroke-linecap:butt;stroke-linejoin:miter;stroke:rgb(0%,0%,0%);stroke-opacity:1;stroke-miterlimit:10;" d="M 35.25 152.191406 L 37.941406 136.015625 "/>
<path style="fill:none;stroke-width:1.2;stroke-linecap:butt;stroke-linejoin:miter;stroke:rgb(0%,0%,100%);stroke-opacity:1;stroke-miterlimit:10;" d="M 37.941406 136.015625 L 40.632812 119.84375 "/>
<path style="fill:none;stroke-width:1.2;stroke-linecap:butt;stroke-linejoin:miter;stroke:rgb(0%,0%,100%);stroke-opacity:1;stroke-miterlimit:10;" d="M 40.632812 119.84375 L 55.984375 114.085938 "/>
<path style="fill:none;stroke-width:1.2;stroke-linecap:butt;stroke-linejoin:miter;stroke:rgb(0%,0%,0%);stroke-opacity:1;stroke-miterlimit:10;" d="M 55.984375 114.085938 L 71.339844 108.328125 "/>
<path style="fill:none;stroke-width:1.2;stroke-linecap:butt;stroke-linejoin:miter;stroke:rgb(0%,0%,100%);stroke-opacity:1;stroke-miterlimit:10;" d="M 46.410156 125.914062 L 58.695312 121.308594 "/>
<path style="fill:none;stroke-width:1.2;stroke-linecap:butt;stroke-linejoin:miter;stroke:rgb(0%,0%,0%);stroke-opacity:1;stroke-miterlimit:10;" d="M 58.695312 121.308594 L 70.976562 116.707031 "/>
<path style=" stroke:none;fill-rule:nonzero;fill:rgb(100%,100%,100%);fill-opacity:1;" d="M 35.632812 111.84375 L 45.632812 111.84375 L 45.632812 127.84375 L 35.632812 127.84375 Z M 35.632812 111.84375 "/>
<g style="fill:rgb(0%,0%,100%);fill-opacity:1;">
  <use xlink:href="#glyph0-1" x="35.632812" y="124.219727"/>
</g>
<path style="fill:none;stroke-width:1.2;stroke-linecap:butt;stroke-linejoin:miter;stroke:rgb(0%,0%,0%);stroke-opacity:1;stroke-miterlimit:10;" d="M 71.339844 108.328125 L 96.660156 129.164062 "/>
<path style="fill:none;stroke-width:1.2;stroke-linecap:butt;stroke-linejoin:miter;stroke:rgb(0%,0%,0%);stroke-opacity:1;stroke-miterlimit:10;" d="M 96.660156 129.164062 L 91.28125 161.511719 "/>
<path style="fill:none;stroke-width:1.2;stroke-linecap:butt;stroke-linejoin:miter;stroke:rgb(0%,0%,0%);stroke-opacity:1;stroke-miterlimit:10;" d="M 103.734375 133.664062 L 99.429688 159.542969 "/>
<path style="fill:none;stroke-width:1.2;stroke-linecap:butt;stroke-linejoin:miter;stroke:rgb(0%,0%,0%);stroke-opacity:1;stroke-miterlimit:10;" d="M 127.367188 117.652344 L 96.660156 129.164062 "/>
<path style="fill:none;stroke-width:1.2;stroke-linecap:butt;stroke-linejoin:miter;stroke:rgb(0%,0%,0%);stroke-opacity:1;stroke-miterlimit:10;" d="M 91.28125 161.511719 L 116.601562 182.347656 "/>
<path style="fill:none;stroke-width:1.2;stroke-linecap:butt;stroke-linejoin:miter;stroke:rgb(0%,0%,0%);stroke-opacity:1;stroke-miterlimit:10;" d="M 112.796875 181.714844 L 110.105469 197.890625 "/>
<path style="fill:none;stroke-width:1.2;stroke-linecap:butt;stroke-linejoin:miter;stroke:rgb(100%,0%,0%);stroke-opacity:1;stroke-miterlimit:10;" d="M 110.105469 197.890625 L 107.414062 214.0625 "/>
<path style="fill:none;stroke-width:1.2;stroke-linecap:butt;stroke-linejoin:miter;stroke:rgb(0%,0%,0%);stroke-opacity:1;stroke-miterlimit:10;" d="M 120.410156 182.980469 L 117.71875 199.15625 "/>
<path style="fill:none;stroke-width:1.2;stroke-linecap:butt;stroke-linejoin:miter;stroke:rgb(100%,0%,0%);stroke-opacity:1;stroke-miterlimit:10;" d="M 117.71875 199.15625 L 115.027344 215.332031 "/>
<path style="fill:none;stroke-width:1.2;stroke-linecap:butt;stroke-linejoin:miter;stroke:rgb(0%,0%,0%);stroke-opacity:1;stroke-miterlimit:10;" d="M 116.601562 182.347656 L 147.308594 170.835938 "/>
<path style=" stroke:none;fill-rule:nonzero;fill:rgb(100%,100%,100%);fill-opacity:1;" d="M 106.21875 206.695312 L 117.21875 206.695312 L 117.21875 222.695312 L 106.21875 222.695312 Z M 106.21875 206.695312 "/>
<g style="fill:rgb(100%,0%,0%);fill-opacity:1;">
  <use xlink:href="#glyph0-2" x="106.21875" y="219.071289"/>
</g>
<path style="fill:none;stroke-width:1.2;stroke-linecap:butt;stroke-linejoin:miter;stroke:rgb(0%,0%,0%);stroke-opacity:1;stroke-miterlimit:10;" d="M 147.308594 170.835938 L 152.691406 138.488281 "/>
<path style="fill:none;stroke-width:1.2;stroke-linecap:butt;stroke-linejoin:miter;stroke:rgb(0%,0%,0%);stroke-opacity:1;stroke-miterlimit:10;" d="M 140.234375 166.335938 L 144.542969 140.457031 "/>
<path style="fill:none;stroke-width:1.2;stroke-linecap:butt;stroke-linejoin:miter;stroke:rgb(0%,0%,0%);stroke-opacity:1;stroke-miterlimit:10;" d="M 152.691406 138.488281 L 127.367188 117.652344 "/>
<path style="fill:none;stroke-width:1.2;stroke-linecap:butt;stroke-linejoin:miter;stroke:rgb(0%,0%,0%);stroke-opacity:1;stroke-miterlimit:10;" d="M 152.691406 138.488281 L 168.042969 132.730469 "/>
<path style="fill:none;stroke-width:1.2;stroke-linecap:butt;stroke-linejoin:miter;stroke:rgb(0%,0%,100%);stroke-opacity:1;stroke-miterlimit:10;" d="M 168.042969 132.730469 L 183.398438 126.972656 "/>
<path style="fill:none;stroke-width:1.2;stroke-linecap:butt;stroke-linejoin:miter;stroke:rgb(0%,0%,0%);stroke-opacity:1;stroke-miterlimit:10;" d="M 131.171875 118.285156 L 133.863281 102.109375 "/>
<path style="fill:none;stroke-width:1.2;stroke-linecap:butt;stroke-linejoin:miter;stroke:rgb(100%,0%,0%);stroke-opacity:1;stroke-miterlimit:10;" d="M 133.863281 102.109375 L 136.554688 85.9375 "/>
<path style="fill:none;stroke-width:1.2;stroke-linecap:butt;stroke-linejoin:miter;stroke:rgb(0%,0%,0%);stroke-opacity:1;stroke-miterlimit:10;" d="M 123.5625 117.019531 L 126.253906 100.84375 "/>
<path style="fill:none;stroke-width:1.2;stroke-linecap:butt;stroke-linejoin:miter;stroke:rgb(100%,0%,0%);stroke-opacity:1;stroke-miterlimit:10;" d="M 126.253906 100.84375 L 128.945312 84.667969 "/>
<path style=" stroke:none;fill-rule:nonzero;fill:rgb(100%,100%,100%);fill-opacity:1;" d="M 127.75 77.304688 L 138.75 77.304688 L 138.75 93.304688 L 127.75 93.304688 Z M 127.75 77.304688 "/>
<g style="fill:rgb(100%,0%,0%);fill-opacity:1;">
  <use xlink:href="#glyph0-2" x="127.75" y="89.680664"/>
</g>
<path style="fill:none;stroke-width:1.2;stroke-linecap:butt;stroke-linejoin:miter;stroke:rgb(0%,0%,100%);stroke-opacity:1;stroke-miterlimit:10;" d="M 183.398438 126.972656 L 196.058594 137.390625 "/>
<path style="fill:none;stroke-width:1.2;stroke-linecap:butt;stroke-linejoin:miter;stroke:rgb(0%,0%,0%);stroke-opacity:1;stroke-miterlimit:10;" d="M 196.058594 137.390625 L 208.71875 147.808594 "/>
<path style=" stroke:none;fill-rule:nonzero;fill:rgb(100%,100%,100%);fill-opacity:1;" d="M 173.398438 118.972656 L 193.398438 118.972656 L 193.398438 134.972656 L 173.398438 134.972656 Z M 173.398438 118.972656 "/>
<g style="fill:rgb(0%,0%,100%);fill-opacity:1;">
  <use xlink:href="#glyph0-1" x="173.398438" y="131.348633"/>
  <use xlink:href="#glyph0-3" x="183.368164" y="131.348633"/>
</g>
<path style="fill:none;stroke-width:1.2;stroke-linecap:butt;stroke-linejoin:miter;stroke:rgb(0%,0%,0%);stroke-opacity:1;stroke-miterlimit:10;" d="M 208.71875 147.808594 L 239.425781 136.296875 "/>
<path style="fill:none;stroke-width:1.2;stroke-linecap:butt;stroke-linejoin:miter;stroke:rgb(0%,0%,0%);stroke-opacity:1;stroke-miterlimit:10;" d="M 239.425781 136.296875 L 252.089844 146.714844 "/>
<path style="fill:none;stroke-width:1.2;stroke-linecap:butt;stroke-linejoin:miter;stroke:rgb(100%,0%,0%);stroke-opacity:1;stroke-miterlimit:10;" d="M 252.089844 146.714844 L 264.75 157.132812 "/>
<path style=" stroke:none;fill-rule:nonzero;fill:rgb(100%,100%,100%);fill-opacity:1;" d="M 254.75 149.132812 L 275.75 149.132812 L 275.75 165.132812 L 254.75 165.132812 Z M 254.75 149.132812 "/>
<g style="fill:rgb(100%,0%,0%);fill-opacity:1;">
  <use xlink:href="#glyph0-2" x="254.75" y="161.508789"/>
  <use xlink:href="#glyph0-3" x="265.240234" y="161.508789"/>
</g>
</g>
</svg>

<svg xmlns="http://www.w3.org/2000/svg" xmlns:xlink="http://www.w3.org/1999/xlink" width="300pt" height="300pt" viewBox="0 0 300 300"><defs><symbol overflow="visible"><path d="M.64 2.297v-11.47h6.5v11.47zm.735-.72h5.047V-8.436H1.375zm0 0"/></symbol><symbol overflow="visible" id="a"><path d="M1.28-9.484H3l4.203 7.937v-7.937h1.25V0H6.72L2.515-7.922V0H1.28zm0 0"/></symbol><symbol overflow="visible" id="b"><path d="M5.125-8.61c-.938 0-1.684.352-2.234 1.047-.542.688-.812 1.633-.812 2.83 0 1.198.27 2.147.813 2.842.55.687 1.297 1.03 2.235 1.03.926 0 1.66-.343 2.203-1.03.55-.696.828-1.645.828-2.844 0-1.196-.277-2.14-.828-2.829-.543-.695-1.277-1.046-2.203-1.046zm0-1.046c1.32 0 2.38.45 3.172 1.344.8.898 1.203 2.09 1.203 3.578 0 1.5-.402 2.7-1.203 3.593C7.504-.255 6.445.186 5.125.186c-1.336 0-2.402-.44-3.203-1.328C1.13-2.036.734-3.235.734-4.735c0-1.49.395-2.68 1.188-3.579.8-.894 1.867-1.343 3.203-1.343zm0 0"/></symbol><symbol overflow="visible" id="c"><path d="M1.28-9.484h1.282v3.89H7.22v-3.89H8.5V0H7.22v-4.516H2.562V0H1.28zm0 0"/></symbol></defs><g><path fill="#fff" d="M0 0h300v300H0z"/><path d="M60.574 173.027L35.25 152.19M62.945 164.984l-20.26-16.668M91.28 161.512l-30.706 11.515M35.25 152.19l2.69-16.174" stroke-width="1.2" stroke="#000" stroke-miterlimit="10" fill="none"/><path d="M37.94 136.016l2.693-16.172M40.633 119.844l15.35-5.758" stroke-width="1.2" stroke="#00f" stroke-miterlimit="10" fill="none"/><path d="M55.984 114.086l15.356-5.758" stroke-width="1.2" stroke="#000" stroke-miterlimit="10" fill="none"/><path d="M46.41 125.914l12.285-4.605" stroke-width="1.2" stroke="#00f" stroke-miterlimit="10" fill="none"/><path d="M58.695 121.31l12.282-4.603" stroke-width="1.2" stroke="#000" stroke-miterlimit="10" fill="none"/><path d="M35.633 111.844h10v16h-10zm0 0" fill="#fff"/><use xlink:href="#a" x="35.633" y="124.22" fill="#00f"/><path d="M71.34 108.328l25.32 20.836M96.66 129.164l-5.38 32.348M103.734 133.664l-4.304 25.88M127.367 117.652L96.66 129.164M91.28 161.512l25.322 20.836M112.797 181.715l-2.692 16.176" stroke-width="1.2" stroke="#000" stroke-miterlimit="10" fill="none"/><path d="M110.105 197.89l-2.69 16.173" stroke-width="1.2" stroke="#f00" stroke-miterlimit="10" fill="none"/><path d="M120.41 182.98l-2.69 16.176" stroke-width="1.2" stroke="#000" stroke-miterlimit="10" fill="none"/><path d="M117.72 199.156l-2.693 16.176" stroke-width="1.2" stroke="#f00" stroke-miterlimit="10" fill="none"/><path d="M116.602 182.348l30.707-11.512" stroke-width="1.2" stroke="#000" stroke-miterlimit="10" fill="none"/><path d="M106.22 206.695h11v16h-11zm0 0" fill="#fff"/><use xlink:href="#b" x="106.219" y="219.071" fill="#f00"/><path d="M147.31 170.836l5.38-32.348M140.234 166.336l4.31-25.88M152.69 138.488l-25.323-20.836M152.69 138.488l15.353-5.758" stroke-width="1.2" stroke="#000" stroke-miterlimit="10" fill="none"/><path d="M168.043 132.73l15.355-5.757" stroke-width="1.2" stroke="#00f" stroke-miterlimit="10" fill="none"/><path d="M131.172 118.285l2.69-16.176" stroke-width="1.2" stroke="#000" stroke-miterlimit="10" fill="none"/><path d="M133.863 102.11l2.692-16.172" stroke-width="1.2" stroke="#f00" stroke-miterlimit="10" fill="none"/><path d="M123.563 117.02l2.69-16.176" stroke-width="1.2" stroke="#000" stroke-miterlimit="10" fill="none"/><path d="M126.254 100.844l2.69-16.176" stroke-width="1.2" stroke="#f00" stroke-miterlimit="10" fill="none"/><path d="M127.75 77.305h11v16h-11zm0 0" fill="#fff"/><use xlink:href="#b" x="127.75" y="89.681" fill="#f00"/><path d="M183.398 126.973l12.66 10.418" stroke-width="1.2" stroke="#00f" stroke-miterlimit="10" fill="none"/><path d="M196.06 137.39l12.66 10.42" stroke-width="1.2" stroke="#000" stroke-miterlimit="10" fill="none"/><path d="M173.398 118.973h20v16h-20zm0 0" fill="#fff"/><g fill="#00f"><use xlink:href="#a" x="173.398" y="131.349"/><use xlink:href="#c" x="183.368" y="131.349"/></g><path d="M208.72 147.81l30.706-11.513M239.426 136.297l12.664 10.418" stroke-width="1.2" stroke="#000" stroke-miterlimit="10" fill="none"/><path d="M252.09 146.715l12.66 10.418" stroke-width="1.2" stroke="#f00" stroke-miterlimit="10" fill="none"/><path d="M254.75 149.133h21v16h-21zm0 0" fill="#fff"/><g fill="#f00"><use xlink:href="#b" x="254.75" y="161.509"/><use xlink:href="#c" x="265.24" y="161.509"/></g></g></svg>
